icons/teams-dark.svg

<svg width="256" height="256" viewBox="0 0 256 256" fill="none" xmlns="http://www.w3.org/2000/svg">
<path d="M196 0H60C26.8629 0 0 26.8629 0 60V196C0 229.137 26.8629 256 60 256H196C229.137 256 256 229.137 256 196V60C256 26.8629 229.137 0 196 0Z" fill="#282828"/>
<path d="M203.252 106.898H162.667C158.363 106.898 159.353 110.557 159.353 114.861V154.328C159.353 161.177 162.074 167.745 166.916 172.588C171.759 177.431 178.327 180.152 185.176 180.152C192.025 180.152 198.593 177.431 203.436 172.588C208.278 167.745 210.999 161.177 210.999 154.328V114.861C211.016 113.829 210.829 112.803 210.448 111.843C210.068 110.884 209.501 110.009 208.781 109.269C208.061 108.529 207.202 107.938 206.253 107.532C205.304 107.125 204.284 106.91 203.252 106.898Z" fill="#5059C9"/>
<path d="M185.09 99.4957C194.645 99.4957 202.391 91.5759 202.391 81.8064C202.391 72.0369 194.645 64.1172 185.09 64.1172C175.535 64.1172 167.789 72.0369 167.789 81.8064C167.789 91.5759 175.535 99.4957 185.09 99.4957Z" fill="#5059C9"/>
<path d="M97.7654 106.898H165.206C166.241 106.91 167.263 107.125 168.214 107.531C169.165 107.937 170.027 108.527 170.75 109.266C171.474 110.005 172.044 110.88 172.43 111.84C172.815 112.8 173.008 113.826 172.996 114.861V163.151C173.111 174.285 168.801 185.009 161.013 192.966C153.226 200.923 142.598 205.463 131.464 205.588C120.343 205.463 109.725 200.928 101.946 192.979C94.1662 185.029 89.8607 174.316 89.9755 163.194V114.861C89.9584 113.829 90.1456 112.803 90.5262 111.843C90.9068 110.884 91.4734 110.009 92.1933 109.269C92.9133 108.529 93.7723 107.938 94.7212 107.532C95.6701 107.125 96.6901 106.91 97.7224 106.898H97.7654Z" fill="#7B83EB"/>
<path d="M131.464 99.4954C144.846 99.4954 155.695 88.4155 155.695 74.7477C155.695 61.0799 144.846 50 131.464 50C118.082 50 107.234 61.0799 107.234 74.7477C107.234 88.4155 118.082 99.4954 131.464 99.4954Z" fill="#7B83EB"/>
<g opacity="0.67">
<path opacity="0.1" d="M97.7652 106.899C96.7329 106.905 95.712 107.115 94.761 107.516C93.81 107.918 92.9477 108.503 92.2238 109.239C91.4998 109.975 90.9285 110.847 90.5427 111.805C90.1568 112.762 89.964 113.786 89.9753 114.819V163.109C89.9354 169.985 91.5754 176.766 94.7526 182.864H121.049C121.953 182.876 122.851 182.709 123.691 182.373C124.531 182.038 125.296 181.54 125.944 180.908C126.591 180.277 127.108 179.524 127.464 178.693C127.821 177.862 128.01 176.968 128.021 176.064V106.899H97.7652Z" fill="black"/>
<path opacity="0.2" d="M97.7655 106.899C96.7332 106.905 95.7122 107.115 94.7612 107.516C93.8102 107.918 92.9479 108.503 92.224 109.239C91.5001 109.975 90.9288 110.847 90.5429 111.805C90.157 112.762 89.9642 113.786 89.9756 114.819V163.109C89.9802 168.146 90.8688 173.142 92.6009 177.872H121.049C121.953 177.883 122.851 177.716 123.691 177.381C124.531 177.045 125.296 176.547 125.944 175.916C126.591 175.284 127.108 174.531 127.464 173.7C127.821 172.869 128.01 171.976 128.021 171.071V106.899H97.7655Z" fill="black"/>
<path opacity="0.2" d="M127.892 99.108C127.741 97.3994 126.954 95.8098 125.687 94.6541C124.419 93.4983 122.764 92.8606 121.049 92.8672H115.11C118.622 96.2205 123.088 98.401 127.892 99.108Z" fill="black"/>
<path opacity="0.1" d="M97.7655 106.899C96.7332 106.905 95.7122 107.115 94.7612 107.516C93.8102 107.918 92.9479 108.503 92.224 109.239C91.5001 109.975 90.9288 110.847 90.5429 111.805C90.157 112.762 89.9642 113.786 89.9756 114.819V163.109C89.9845 166.575 90.4035 170.028 91.2237 173.395H128.581C129.27 173.384 129.951 173.237 130.584 172.963C131.217 172.689 131.789 172.293 132.269 171.797C132.748 171.301 133.126 170.716 133.379 170.075C133.632 169.433 133.757 168.748 133.745 168.059V106.899H97.7655Z" fill="black"/>
<path opacity="0.1" d="M109.73 85.4648C111.627 89.5931 114.655 93.0987 118.464 95.5746C122.273 98.0506 126.706 99.3953 131.249 99.4527C132.016 99.4878 132.784 99.4153 133.53 99.2375V90.8448C133.542 89.4595 133.005 88.1258 132.038 87.1343C131.071 86.1427 129.751 85.5736 128.366 85.5509L109.73 85.4648Z" fill="black"/>
<path opacity="0.1" d="M110.935 87.7031C113.039 91.2783 116.04 94.2426 119.64 96.3033C123.24 98.3639 127.316 99.4496 131.464 99.4529C132.217 99.488 132.97 99.4155 133.702 99.2377V93.1261C133.714 91.7408 133.177 90.4071 132.21 89.4156C131.243 88.424 129.923 87.8549 128.538 87.8322H110.935V87.7031Z" fill="black"/>
<path opacity="0.1" d="M97.7655 106.899C96.7332 106.904 95.7122 107.114 94.7612 107.515C93.8102 107.917 92.9479 108.503 92.224 109.239C91.5001 109.975 90.9288 110.846 90.5429 111.804C90.157 112.761 89.9642 113.786 89.9756 114.818V163.108C89.9672 167.079 90.5031 171.033 91.568 174.858L127.892 175.332C129.407 175.211 130.829 174.548 131.895 173.466C132.962 172.383 133.604 170.952 133.702 169.435V106.727L97.7655 106.899Z" fill="black"/>
<path opacity="0.01" d="M127.849 99.1082V86.7128C127.855 86.0232 127.725 85.3393 127.466 84.7001C127.207 84.0609 126.825 83.4789 126.342 82.9873C125.858 82.4957 125.282 82.1041 124.648 81.8351C124.013 81.566 123.331 81.4246 122.641 81.4189H108.267C109.472 85.9446 111.963 90.0239 115.439 93.1633C118.914 96.3027 123.225 98.3676 127.849 99.1082Z" fill="black"/>
<path opacity="0.01" d="M97.7655 106.899C96.7332 106.905 95.7122 107.115 94.7612 107.516C93.8102 107.918 92.9479 108.503 92.224 109.239C91.5001 109.975 90.9288 110.847 90.5429 111.805C90.157 112.762 89.9642 113.786 89.9756 114.819V162.851L117.305 159.149C120.188 159.149 127.849 156.61 127.849 153.683V106.899H97.7655Z" fill="black"/>
<path opacity="0.2" d="M97.7655 106.899C96.7332 106.905 95.7122 107.115 94.7612 107.516C93.8102 107.918 92.9479 108.503 92.224 109.239C91.5001 109.975 90.9288 110.847 90.5429 111.805C90.157 112.762 89.9642 113.786 89.9756 114.819V163.109C89.9961 169.038 91.2416 174.9 93.6338 180.325H121.178C122.083 180.331 122.979 180.158 123.817 179.817C124.654 179.476 125.417 178.974 126.06 178.338C126.704 177.703 127.216 176.947 127.567 176.114C127.918 175.28 128.102 174.386 128.107 173.482V106.899H97.7655Z" fill="black"/>
<path opacity="0.2" d="M127.247 99.0227C126.646 97.902 125.752 96.9656 124.66 96.3137C123.569 95.6617 122.32 95.3187 121.049 95.3213H117.907C120.708 97.2313 123.898 98.4955 127.247 99.0227Z" fill="black"/>
<path opacity="0.3" d="M97.7654 106.899C96.7331 106.905 95.7121 107.115 94.7611 107.516C93.8101 107.918 92.9478 108.503 92.2239 109.239C91.5 109.975 90.9287 110.847 90.5428 111.805C90.1569 112.762 89.9641 113.786 89.9755 114.819V163.109C89.9608 165.781 90.2059 168.447 90.7071 171.071H121.092C122.915 171.072 124.665 170.353 125.962 169.072C127.259 167.791 127.999 166.051 128.021 164.228V106.899H97.7654Z" fill="black"/>
<path opacity="0.3" d="M128.021 99.1517V94.5465C127.999 92.7276 127.257 90.9916 125.959 89.7175C124.661 88.4434 122.911 87.7347 121.092 87.7462H110.978C112.819 90.8081 115.319 93.4208 118.297 95.3939C121.275 97.367 124.656 98.6508 128.193 99.1517H128.021Z" fill="black"/>
<path opacity="0.3" d="M97.7655 106.899C96.7332 106.905 95.7122 107.115 94.7612 107.516C93.8102 107.918 92.9479 108.503 92.224 109.239C91.5001 109.975 90.9288 110.847 90.5429 111.805C90.157 112.762 89.9642 113.786 89.9756 114.819V163.109C89.9835 165.621 90.2139 168.127 90.6642 170.598H121.092C122.923 170.609 124.683 169.896 125.989 168.614C127.296 167.332 128.042 165.585 128.064 163.755V106.899H97.7655Z" fill="black"/>
<path opacity="0.3" d="M128.021 99.1511V94.5459C128.01 93.6416 127.821 92.7483 127.464 91.9171C127.108 91.0859 126.591 90.3331 125.944 89.7016C125.296 89.0701 124.531 88.5724 123.691 88.2368C122.851 87.9012 121.953 87.7343 121.049 87.7457H110.978C112.801 90.7871 115.274 93.3871 118.221 95.3591C121.168 97.3311 124.515 98.6261 128.021 99.1511Z" fill="black"/>
<path opacity="0.3" d="M97.7655 106.899C96.7332 106.905 95.7122 107.115 94.7612 107.516C93.8102 107.918 92.9479 108.503 92.224 109.239C91.5001 109.975 90.9288 110.847 90.5429 111.805C90.157 112.762 89.9642 113.786 89.9756 114.819V163.109C89.9752 166.978 90.4963 170.828 91.5249 174.558H121.049C122.872 174.558 124.622 173.84 125.919 172.559C127.216 171.278 127.956 169.537 127.978 167.714V106.899H97.7655Z" fill="black"/>
<path opacity="0.3" d="M128.021 99.1517V96.3112C127.998 94.4769 127.254 92.7255 125.949 91.4364C124.644 90.1474 122.883 89.4247 121.049 89.4248H112.183C114.05 92.0121 116.41 94.2038 119.129 95.8734C121.847 97.5429 124.87 98.6572 128.021 99.1517Z" fill="black"/>
<path opacity="0.2" d="M97.7652 106.899C96.7329 106.905 95.712 107.115 94.761 107.516C93.81 107.918 92.9477 108.503 92.2238 109.239C91.4999 109.975 90.9285 110.847 90.5427 111.805C90.1568 112.762 89.964 113.786 89.9753 114.819V163.109C89.9492 167.494 90.6323 171.854 91.9981 176.021H121.049C121.957 176.032 122.858 175.864 123.701 175.526C124.543 175.187 125.311 174.686 125.959 174.05C126.607 173.414 127.122 172.656 127.476 171.82C127.83 170.984 128.015 170.086 128.021 169.178V106.899H97.7652Z" fill="black"/>
<path opacity="0.2" d="M128.021 99.1511V97.86C127.998 96.0411 127.257 94.305 125.959 93.031C124.661 91.7569 122.911 91.0482 121.092 91.0597H113.388C117.144 95.4167 122.334 98.2866 128.021 99.1511Z" fill="black"/>
<path opacity="0.1" d="M131.464 99.4526H132.798V95.536C132.81 94.1508 132.274 92.8171 131.306 91.8255C130.339 90.8339 129.019 90.2648 127.634 90.2422H112.657C114.866 93.1361 117.712 95.4835 120.973 97.1029C124.234 98.7223 127.823 99.5704 131.464 99.5818V99.4526Z" fill="black"/>
<path opacity="0.1" d="M132.799 106.899H97.7655C96.7332 106.905 95.7122 107.115 94.7612 107.516C93.8102 107.918 92.9479 108.503 92.224 109.239C91.5001 109.975 90.9288 110.847 90.5429 111.805C90.157 112.762 89.9642 113.786 89.9756 114.819V163.109C89.9745 166.429 90.3646 169.737 91.1376 172.965H127.634C129.015 172.965 130.34 172.416 131.316 171.44C132.293 170.463 132.842 169.139 132.842 167.757L132.799 106.899Z" fill="black"/>
<path opacity="0.2" d="M97.7655 106.899C96.7332 106.905 95.7122 107.115 94.7612 107.516C93.8102 107.918 92.9479 108.503 92.224 109.239C91.5001 109.975 90.9288 110.847 90.5429 111.805C90.157 112.762 89.9642 113.786 89.9756 114.819V163.109C89.9754 165.825 90.2348 168.534 90.7503 171.201H123.631C125.017 171.189 126.341 170.631 127.316 169.647C128.292 168.664 128.839 167.335 128.839 165.95V106.899H97.7655Z" fill="black"/>
<path opacity="0.2" d="M128.839 99.1945V95.5361C128.85 94.1394 128.31 92.7948 127.334 91.7951C126.359 90.7955 125.028 90.2219 123.631 90.1992H112.527C114.507 92.7129 116.97 94.8041 119.772 96.3492C122.574 97.8942 125.657 98.8617 128.839 99.1945Z" fill="black"/>
<path opacity="0.3" d="M129.398 99.281V93.1263C129.398 90.0275 122.383 88.2629 121.608 87.3591C119.344 86.1097 116.792 85.4718 114.206 85.5083H109.472C111.282 89.3585 114.079 92.661 117.579 95.08C121.079 97.499 125.157 98.9484 129.398 99.281Z" fill="black"/>
<path opacity="0.3" d="M97.7655 106.899C96.7332 106.905 95.7122 107.115 94.7612 107.516C93.8102 107.918 92.9479 108.503 92.224 109.239C91.5001 109.975 90.9288 110.847 90.5429 111.805C90.157 112.762 89.9642 113.786 89.9756 114.819V163.109C89.9689 164.864 90.0695 166.617 90.2769 168.36H124.406C125.09 168.354 125.766 168.214 126.396 167.947C127.025 167.68 127.596 167.292 128.076 166.804C128.556 166.317 128.934 165.739 129.191 165.105C129.447 164.471 129.576 163.793 129.571 163.109V106.899H97.7655Z" fill="black"/>
<path opacity="0.1" d="M131.077 99.409C131.088 98.0352 130.557 96.7124 129.597 95.7289C128.638 94.7454 127.329 94.1809 125.955 94.1582H116.487C120.638 97.614 125.848 99.5431 131.249 99.6242L131.077 99.409Z" fill="black"/>
<path opacity="0.1" d="M97.7653 106.899C96.733 106.905 95.7121 107.115 94.7611 107.516C93.8101 107.918 92.9478 108.503 92.2239 109.239C91.4999 109.975 90.9286 110.847 90.5427 111.805C90.1569 112.762 89.9641 113.786 89.9754 114.819V163.109C89.9442 167.765 90.7009 172.392 92.2134 176.796H125.912C126.596 176.79 127.272 176.65 127.902 176.383C128.532 176.116 129.103 175.728 129.582 175.24C130.062 174.752 130.441 174.175 130.697 173.541C130.953 172.907 131.083 172.229 131.077 171.545V106.986L97.7653 106.899Z" fill="black"/>
<path opacity="0.1" d="M97.7655 106.899C96.7332 106.905 95.7122 107.115 94.7612 107.516C93.8102 107.918 92.9479 108.503 92.224 109.239C91.5001 109.975 90.9288 110.847 90.5429 111.805C90.157 112.762 89.9642 113.786 89.9756 114.819V164.142L117.262 160.441C120.145 160.441 127.806 157.901 127.806 154.975V107.029L97.7655 106.899Z" fill="black"/>
<path opacity="0.1" d="M127.849 99.1086V88.2626C127.86 87.5731 127.736 86.888 127.482 86.2466C127.229 85.6052 126.852 85.0199 126.372 84.5243C125.893 84.0287 125.32 83.6325 124.687 83.3582C124.055 83.0839 123.374 82.937 122.684 82.9258H108.697C110.118 87.1085 112.652 90.8249 116.027 93.6761C119.401 96.5272 123.488 98.4053 127.849 99.1086Z" fill="black"/>
<path opacity="0.15" d="M127.849 99.1084V89.5536C127.861 88.1684 127.324 86.8347 126.357 85.8431C125.39 84.8515 124.07 84.2824 122.685 84.2598H109.127C110.706 88.137 113.259 91.5411 116.539 94.1424C119.819 96.7437 123.714 98.4542 127.849 99.1084Z" fill="black"/>
<path opacity="0.15" d="M97.7655 106.899C96.7332 106.905 95.7122 107.115 94.7612 107.516C93.8102 107.918 92.9479 108.503 92.224 109.239C91.5001 109.975 90.9288 110.847 90.5429 111.805C90.157 112.762 89.9642 113.786 89.9756 114.819V165.433L117.176 161.775C120.059 161.775 127.763 159.192 127.763 156.309V106.899H97.7655Z" fill="black"/>
</g>
<path d="M51.9297 85.335H121.135C122.988 85.3577 124.757 86.1127 126.055 87.4352C127.354 88.7577 128.076 90.5402 128.064 92.3934V163.15C128.076 165.004 127.354 166.786 126.055 168.109C124.757 169.431 122.988 170.186 121.135 170.209H51.9297C51.0104 170.203 50.1014 170.016 49.2548 169.658C48.4082 169.299 47.6408 168.777 46.9968 168.121C46.3528 167.465 45.8449 166.688 45.5023 165.835C45.1597 164.982 44.9892 164.07 45.0005 163.15V92.3934C44.989 90.5402 45.7113 88.7577 47.0095 87.4352C48.3078 86.1127 50.0766 85.3577 51.9297 85.335Z" fill="#4B53BC"/>
<path d="M107.105 111.718H91.6108V154.285H81.4108V111.718H65.874V101.26H107.105V111.718Z" fill="white"/>
</svg>

<svg xmlns="http://www.w3.org/2000/svg" width="256" height="256" fill="none"><path fill="#282828" d="M196 0H60C26.863 0 0 26.863 0 60v136c0 33.137 26.863 60 60 60h136c33.137 0 60-26.863 60-60V60c0-33.137-26.863-60-60-60"/><path fill="#5059C9" d="M203.252 106.898h-40.585c-4.304 0-3.314 3.659-3.314 7.963v39.467a25.827 25.827 0 0 0 25.823 25.824 25.823 25.823 0 0 0 25.823-25.824v-39.467a7.833 7.833 0 0 0-7.747-7.963m-18.162-7.402c9.555 0 17.301-7.92 17.301-17.69s-7.746-17.689-17.301-17.689-17.301 7.92-17.301 17.69c0 9.769 7.746 17.689 17.301 17.689"/><path fill="#7B83EB" d="M97.765 106.898h67.441a7.9 7.9 0 0 1 5.544 2.368 7.87 7.87 0 0 1 2.246 5.595v48.29a42.004 42.004 0 0 1-41.532 42.437 41.96 41.96 0 0 1-41.488-42.394v-48.333a7.84 7.84 0 0 1 2.217-5.592 7.85 7.85 0 0 1 5.53-2.371zm33.699-7.403c13.382 0 24.231-11.08 24.231-24.747S144.846 50 131.464 50s-24.23 11.08-24.23 24.748c0 13.667 10.848 24.747 24.23 24.747"/><g fill="#000" opacity=".67"><path d="M97.765 106.899a7.85 7.85 0 0 0-5.541 2.34 7.83 7.83 0 0 0-2.249 5.58v48.29a42.2 42.2 0 0 0 4.778 19.755h26.296a6.87 6.87 0 0 0 6.415-4.171 6.9 6.9 0 0 0 .557-2.629v-69.165z" opacity=".1"/><path d="M97.766 106.899a7.85 7.85 0 0 0-5.542 2.34 7.83 7.83 0 0 0-2.248 5.58v48.29a43 43 0 0 0 2.625 14.763h28.448a6.9 6.9 0 0 0 2.642-.491 6.89 6.89 0 0 0 4.33-6.31v-64.172zm30.126-7.791a6.844 6.844 0 0 0-6.843-6.24h-5.939a23.45 23.45 0 0 0 12.782 6.24" opacity=".2"/><path d="M97.766 106.899a7.85 7.85 0 0 0-5.542 2.34 7.83 7.83 0 0 0-2.248 5.58v48.29a44 44 0 0 0 1.248 10.286h37.357a5.26 5.26 0 0 0 3.688-1.598 5.26 5.26 0 0 0 1.476-3.738v-61.16zm11.964-21.434a24.02 24.02 0 0 0 21.519 13.988 8.2 8.2 0 0 0 2.281-.216v-8.392a5.25 5.25 0 0 0-5.164-5.294z" opacity=".1"/><path d="M110.935 87.703a23.85 23.85 0 0 0 20.529 11.75 8 8 0 0 0 2.238-.215v-6.112a5.25 5.25 0 0 0-5.164-5.294h-17.603zm-13.169 19.196a7.83 7.83 0 0 0-7.79 7.919v48.29a43.5 43.5 0 0 0 1.592 11.75l36.324.474a6.33 6.33 0 0 0 5.81-5.897v-62.708z" opacity=".1"/><path d="M127.849 99.108V86.713a5.24 5.24 0 0 0-1.507-3.726 5.26 5.26 0 0 0-3.701-1.568h-14.374a24.23 24.23 0 0 0 19.582 17.69m-30.083 7.79a7.85 7.85 0 0 0-5.542 2.34 7.83 7.83 0 0 0-2.248 5.58v48.032l27.329-3.702c2.883 0 10.544-2.539 10.544-5.466v-46.784z" opacity=".01"/><path d="M97.766 106.899a7.85 7.85 0 0 0-5.542 2.34 7.83 7.83 0 0 0-2.248 5.58v48.29a43 43 0 0 0 3.658 17.216h27.544a6.88 6.88 0 0 0 4.882-1.987 6.87 6.87 0 0 0 2.047-4.856v-66.583zm29.481-7.876a7.02 7.02 0 0 0-6.198-3.702h-3.142a22.9 22.9 0 0 0 9.34 3.702" opacity=".2"/><path d="M97.765 106.899a7.85 7.85 0 0 0-5.541 2.34 7.83 7.83 0 0 0-2.249 5.58v48.29c-.014 2.672.23 5.338.732 7.962h30.385a6.926 6.926 0 0 0 6.929-6.843v-57.329zm30.256-7.747v-4.606a6.884 6.884 0 0 0-6.929-6.8h-10.114a24.02 24.02 0 0 0 17.215 11.406z" opacity=".3"/><path d="M97.766 106.899a7.85 7.85 0 0 0-5.542 2.34 7.83 7.83 0 0 0-2.248 5.58v48.29c.008 2.512.238 5.018.688 7.489h30.428a6.93 6.93 0 0 0 6.972-6.843v-56.856zm30.255-7.748v-4.605a6.884 6.884 0 0 0-6.972-6.8h-10.071a24.02 24.02 0 0 0 17.043 11.405" opacity=".3"/><path d="M97.766 106.899a7.85 7.85 0 0 0-5.542 2.34 7.83 7.83 0 0 0-2.248 5.58v48.29c0 3.869.52 7.719 1.549 11.449h29.524a6.93 6.93 0 0 0 6.929-6.844v-60.815zm30.255-7.747v-2.84a6.974 6.974 0 0 0-6.972-6.887h-8.866a24.15 24.15 0 0 0 15.838 9.727" opacity=".3"/><path d="M97.765 106.899a7.85 7.85 0 0 0-5.541 2.34 7.83 7.83 0 0 0-2.249 5.58v48.29a40.7 40.7 0 0 0 2.023 12.912h29.051a6.9 6.9 0 0 0 2.652-.495 6.89 6.89 0 0 0 4.32-6.348v-62.279zm30.256-7.748V97.86a6.89 6.89 0 0 0-6.929-6.8h-7.704a24.1 24.1 0 0 0 14.633 8.091" opacity=".2"/><path d="M131.464 99.453h1.334v-3.917a5.246 5.246 0 0 0-5.164-5.294h-14.977a23.75 23.75 0 0 0 18.807 9.34zm1.335 7.446H97.766a7.85 7.85 0 0 0-5.542 2.34 7.83 7.83 0 0 0-2.248 5.58v48.29a42.3 42.3 0 0 0 1.162 9.856h36.496a5.21 5.21 0 0 0 5.208-5.208z" opacity=".1"/><path d="M97.766 106.899a7.85 7.85 0 0 0-5.542 2.34 7.83 7.83 0 0 0-2.248 5.58v48.29c0 2.716.259 5.425.774 8.092h32.881a5.25 5.25 0 0 0 5.208-5.251v-59.051zm31.073-7.704v-3.659a5.294 5.294 0 0 0-5.208-5.337h-11.104a23.94 23.94 0 0 0 16.312 8.996" opacity=".2"/><path d="M129.398 99.281v-6.155c0-3.099-7.015-4.863-7.79-5.767a14.9 14.9 0 0 0-7.402-1.85h-4.734a24.1 24.1 0 0 0 19.926 13.772m-31.632 7.618a7.85 7.85 0 0 0-5.542 2.34 7.83 7.83 0 0 0-2.248 5.58v48.29a43 43 0 0 0 .3 5.251h34.13a5.22 5.22 0 0 0 3.67-1.556 5.2 5.2 0 0 0 1.495-3.695v-56.21z" opacity=".3"/><path d="M131.077 99.409a5.21 5.21 0 0 0-5.122-5.25h-9.468a23.63 23.63 0 0 0 14.762 5.465zm-33.312 7.49a7.85 7.85 0 0 0-5.541 2.34 7.83 7.83 0 0 0-2.249 5.58v48.29a41.3 41.3 0 0 0 2.238 13.687h33.699a5.22 5.22 0 0 0 3.67-1.556 5.2 5.2 0 0 0 1.495-3.695v-64.559z" opacity=".1"/><path d="M97.766 106.899a7.85 7.85 0 0 0-5.542 2.34 7.83 7.83 0 0 0-2.248 5.58v49.323l27.286-3.701c2.883 0 10.544-2.54 10.544-5.466v-47.946zm30.083-7.79V88.263a5.25 5.25 0 0 0-3.162-4.905 5.3 5.3 0 0 0-2.003-.432h-13.987a24.31 24.31 0 0 0 19.152 16.183" opacity=".1"/><path d="M127.849 99.108v-9.554a5.25 5.25 0 0 0-5.164-5.294h-13.558a24.32 24.32 0 0 0 18.722 14.848m-30.083 7.791a7.85 7.85 0 0 0-5.542 2.34 7.83 7.83 0 0 0-2.248 5.58v50.614l27.2-3.658c2.883 0 10.587-2.583 10.587-5.466v-49.41z" opacity=".15"/></g><path fill="#4B53BC" d="M51.93 85.335h69.205a7.014 7.014 0 0 1 6.929 7.058v70.757a7.01 7.01 0 0 1-6.929 7.059H51.93a7 7 0 0 1-4.933-2.088A6.97 6.97 0 0 1 45 163.15V92.393a7.016 7.016 0 0 1 6.929-7.058"/><path fill="#fff" d="M107.105 111.718H91.611v42.567h-10.2v-42.567H65.874V101.26h41.231z"/></svg>
